res/skins/LateNight/buttons/btn_beatbox_double.svg

<?xml version="1.0" encoding="UTF-8" standalone="no"?>
<!-- Created with Inkscape (http://www.inkscape.org/) -->

<svg
   xmlns:dc="http://purl.org/dc/elements/1.1/"
   xmlns:cc="http://creativecommons.org/ns#"
   xmlns:rdf="http://www.w3.org/1999/02/22-rdf-syntax-ns#"
   xmlns:svg="http://www.w3.org/2000/svg"
   xmlns="http://www.w3.org/2000/svg"
   xmlns:xlink="http://www.w3.org/1999/xlink"
   version="1.1"
   width="18"
   height="12"
   id="svg3063">
  <metadata
     id="metadata3073">
    <rdf:RDF>
      <cc:Work
         rdf:about="">
        <dc:format>image/svg+xml</dc:format>
        <dc:type
           rdf:resource="http://purl.org/dc/dcmitype/StillImage" />
        <dc:title></dc:title>
      </cc:Work>
    </rdf:RDF>
  </metadata>
  <defs
     id="defs3071">
    <linearGradient
       id="linearGradient5420">
      <stop
         id="stop5422"
         style="stop-color:#101010;stop-opacity:1"
         offset="0" />
      <stop
         id="stop5424"
         style="stop-color:#242424;stop-opacity:1"
         offset="1" />
    </linearGradient>
    <linearGradient
       x1="12.551146"
       y1="21.841436"
       x2="12.525126"
       y2="1.1143692"
       id="linearGradient5426"
       xlink:href="#linearGradient5420"
       gradientUnits="userSpaceOnUse" />
    <linearGradient
       x1="12.551146"
       y1="21.841436"
       x2="12.525126"
       y2="1.1143692"
       id="linearGradient5426-7"
       xlink:href="#linearGradient5420-5"
       gradientUnits="userSpaceOnUse" />
    <linearGradient
       id="linearGradient5420-5">
      <stop
         id="stop5422-3"
         style="stop-color:#101010;stop-opacity:1"
         offset="0" />
      <stop
         id="stop5424-5"
         style="stop-color:#242424;stop-opacity:1"
         offset="1" />
    </linearGradient>
    <linearGradient
       x1="12.551146"
       y1="21.841436"
       x2="12.525126"
       y2="1.1143692"
       id="linearGradient6970"
       xlink:href="#linearGradient5420-5"
       gradientUnits="userSpaceOnUse"
       gradientTransform="matrix(1.0320341,0,0,1.0865472,1.5000021,-11.491327)" />
    <linearGradient
       x1="12.551146"
       y1="21.841436"
       x2="12.525126"
       y2="1.1143692"
       id="linearGradient6970-3"
       xlink:href="#linearGradient5420-5-6"
       gradientUnits="userSpaceOnUse"
       gradientTransform="matrix(1.0320341,0,0,1,0.5,9e-6)" />
    <linearGradient
       id="linearGradient5420-5-6">
      <stop
         id="stop5422-3-7"
         style="stop-color:#101010;stop-opacity:1"
         offset="0" />
      <stop
         id="stop5424-5-5"
         style="stop-color:#242424;stop-opacity:1"
         offset="1" />
    </linearGradient>
  </defs>
  <rect
     width="18"
     height="12"
     x="0"
     y="-8.8817842e-16"
     id="rect3227"
     style="color:#000000;fill:#101010;fill-opacity:1;fill-rule:nonzero;stroke:none;stroke-width:1;marker:none;visibility:visible;display:inline;overflow:visible;enable-background:accumulate" />
  <path
     d="M 0.5004265,8.376178 C 0.49437735,10.11751 1.6805342,11.5 3.1670932,11.5 l 11.6662418,0 c 1.48656,0 2.660618,-1.38249 2.666667,-3.123822 l 0.01648,-4.7440292 c 0.006,-1.7413329 -1.180107,-3.1238226 -2.666667,-3.1238226 l -11.6662416,0 c -1.486559,0 -2.66061765,1.3824897 -2.6666668,3.1238226 z"
     id="path3067-6"
     style="font-weight:400;text-indent:0;text-align:start;line-height:normal;text-transform:none;block-progression:tb;color:#000000;fill:url(#linearGradient6970);fill-opacity:1;marker:none;overflow:visible;font-family:Sans;-inkscape-font-specification:Sans" />
  <path
     d="m 3.1731557,-1.488e-4 c -1.7965544,0 -3.15227914,1.6577601 -3.1562501,3.625 L 0,12 18,12 18.01648,3.6248512 c 0.0039,-1.96724 -1.359696,-3.625 -3.156251,-3.625 z m 0,1 11.6870753,0 c 1.176565,0 2.159637,1.1095596 2.15625,2.625 L 17,11.5 1,11.5 1.0169055,3.6248512 c 0.00325,-1.5154406 0.9796866,-2.625 2.1562502,-2.625 z"
     id="path3067-6-3"
     style="font-size:medium;font-style:normal;font-variant:normal;font-weight:400;font-stretch:normal;text-indent:0;text-align:start;text-decoration:none;line-height:normal;letter-spacing:normal;word-spacing:normal;text-transform:none;direction:ltr;block-progression:tb;writing-mode:lr-tb;text-anchor:start;baseline-shift:baseline;color:#000000;fill:#666666;fill-opacity:1;stroke:none;stroke-width:1;marker:none;visibility:visible;display:inline;overflow:visible;enable-background:accumulate;font-family:Sans;-inkscape-font-specification:Sans" />
  <path
     d="M 8.9999995,2 4.9585463,9 13.041454,9 z"
     id="path3065-6"
     style="fill:#bfbfbf;fill-opacity:1" />
</svg>

<svg id="svg3063" width="18" height="12" version="1.1" xmlns="http://www.w3.org/2000/svg"><defs id="defs3071"><linearGradient id="linearGradient6970" x1="12.551" x2="12.525" y1="21.841" y2="1.1144" gradientTransform="matrix(1.032 0 0 1.0865 1.5 -11.491)" gradientUnits="userSpaceOnUse"><stop id="stop5422-3" stop-color="#101010" offset="0"/><stop id="stop5424-5" stop-color="#242424" offset="1"/></linearGradient></defs><rect id="rect3227" y="-8.8818e-16" width="18" height="12" color="#000000" fill="#101010"/><path id="path3067-6" d="m0.50043 8.3762c-0.0060492 1.7413 1.1801 3.1238 2.6667 3.1238h11.666c1.4866 0 2.6606-1.3825 2.6667-3.1238l0.01648-4.744c6e-3 -1.7413-1.1801-3.1238-2.6667-3.1238h-11.666c-1.4866 0-2.6606 1.3825-2.6667 3.1238z" color="#000000" fill="url(#linearGradient6970)" style="block-progression:tb;text-indent:0;text-transform:none"/><path id="path3067-6-3" d="m3.1732-1.488e-4c-1.7966 0-3.1523 1.6578-3.1563 3.625l-0.016906 8.3751h18l0.01648-8.3751c0.0039-1.9672-1.3597-3.625-3.1563-3.625zm0 1h11.687c1.1766 0 2.1596 1.1096 2.1562 2.625l-0.016481 7.8751h-16l0.016906-7.8751c0.00325-1.5154 0.97969-2.625 2.1563-2.625z" color="#000000" fill="#666" style="block-progression:tb;text-indent:0;text-transform:none"/><path id="path3065-6" d="m9 2-4.0415 7h8.0829z" fill="#bfbfbf"/></svg>
